X:1
T:Mantis Lords
T:Mantis Lords
%%score { 1 | 2 } { 3 | 4 }
L:1/8
Q:1/4=145
M:4/4
K:Eb
V:1 treble nm="Marimba 1" snm="Mrm. 1"
V:2 bass 
V:3 treble nm="Marimba 2" snm="Mrm. 2"
V:4 bass 
V:1
"^\n" z aga gfgf | efed ca/A/ g/G/a/A/ | g/G/f/F/ g/G/f/F/ e/E/f/F/ e/E/d/D/ | %3
 [Cc][Aa][Gg][Aa] [Gg][Ff][Gg][Ff] | [Ee][Ff][Ee][Dd] e/E/d/D/ c/C/d/D/ | %5
 c/C/B/B,/ c/C/B/B,/ A/A,/G/G,/ F/F,/E | [_G,D]3 [C_G]3 [=B,-=G]2 | [B,G] [D=B]3 [Gc]aga- | %8
 ag f2 a2 g2 | cG=B c2 d e2 | d2 =B2 cAcd | egcG cdeg | =BGBc df g2- | g =B3!mp! [C,C]4 | %14
 z4!mp! [D,D][E,E][D,D]G, |!mp! [C,C]2 [D,D]2!mf! [E,E]2 [E,E]2 | %16
!f! [F,F]2 [G,G]2!mp! C/F,/C/F,/ C/F,/C/F,/ | C/F,/C/F,/ C/E,/C/E,/ C/E,/C/E,/ C/E,/C/E,/ | %18
 =B,/D,/B,/D,/ B,/D,/B,/D,/ B,/D,/B,/D,/!f! cA | %19
 cdeg!mp! [G,=B,]/C,/[G,B,]/C,/ [G,B,]/C,/[G,B,]/C,/ | [G,=B,]/C,/[G,B,]/C,/!f! AF A=Bcf | %21
!mp! [E,G,]/C,/[E,G,]/C,/ [E,G,]/C,/[E,G,]/C,/ [E,G,]/C,/[E,G,]/C,/!f! _GE | %22
 _G=Ace!mp! [D,_G,]/C,/[D,G,]/C,/ [D,G,]/C,/[D,G,]/C,/ |!f! g=agg g/g/_a/g/ gg/g/ | %24
 a/g/g g/g/a/g/ gg/g/ A/G/A/c/ | A/c/d/c/ d/e/d/e/ f/e/f/g/ _g/=g/a/g/ | %26
 a/=a/b/=b/ [gc']_a g a2 g | z4 z2 [gc']a | g a2 _g z4 | z2 [=e=a]f e f2 _a | z4 z2 [=e=a]f | %31
 e f2 b z4 | z2 b_g f g2 c'- | c'_gf g2 _d'2 g | f _g2 e'2 gfg- | g [ff']3 [_g_g']3 [aa'-] | %36
 [aa']2 [_g_g']3 [_Gg]3 | [Gg]3 [=A=a]3 [Gg-]2 | g [ff']3 [_g_g']3 [aa'-] | a'2 [_g_g']3 [_Gg]3 | %40
 [Gg]3 [=A=a]3 [Bb-]2 | b z z2 z4 | z8 | z8 | z8 | z8 | z8 | z8 | z8 | z8 | z8 | z8 | z8 | z8 | %54
 z8 | z8 | z8 | z8 | z8 | z8 | z8 | z8 | z8 | z8 | z8 | z8 | z8 | z8 | z8 | z8 | z8 | z8 | z8 | %73
 z8 | z8 | z8 | z8 | z8 | z8 | z8 | z8 | z8 | z8 | z8 | z8 | z8 | z8 | z8 | z8 | z8 | z8 | z8 | %92
 z8 | z8 | z8 | z8 | z8 | z8 | z8 | z8 |] %100
V:2
 z8 | z2 z2 z/ z/ z/ z/ z2 | z8 | z8 | z8 | z4 z2 z E, | z8 | z8 | z8 | z8 | z8 | z8 | z8 | z8 | %14
 z8 | z8 | z8 | z8 | z8 | z8 | z8 | z8 | z8 | z8 | z8 | z8 | z8 | z8 | z8 | z8 | z8 | z8 | z8 | %33
 z8 | z8 | z8 | z8 | z8 | z8 | z8 | z8 | z8 | z8 | z8 | z8 | z8 | z8 | z8 | z8 | z8 | z8 | z8 | %52
 z8 | z8 | z8 | z8 | z8 | z8 | z8 | z8 | z8 | z8 | z8 | z8 | z8 | z8 | z8 | z8 | z8 | z8 | z8 | %71
 z8 | z8 | z8 | z8 | z8 | z8 | z8 | z8 | z8 | z8 | z8 | z8 | z8 | z8 | z8 | z8 | z8 | z8 | z8 | %90
 z8 | z8 | z8 | z8 | z8 | z8 | z8 | z8 | z8 | z8 |] %100
V:3
!f! !>!C2 z2 z4 | z!p! C!mp!C!mf!C!f! !>!C4 | z4 z/ z/ F/G/ A/=A/B/=B/ | c z z2 z4 | z8 | z8 | %6
!mp! D/D,/D/D,/ D/D,/D/D,/ D/D,/D/D,/!mp! G/G,/G/G,/ | %7
 G/G,/G/G,/ G/G,/G/G,/ C/C,/C/C,/ C/C,/C/C,/ | C/C,/C/C,/ C/C,/C/C,/ z4 | %9
!mp! C/C,/C/C,/ C/C,/C/C,/ C/C,/C/C,/ C/C,/C/C,/ | z4 F/F,/F/F,/ F/F,/F/F,/ | %11
 F/F,/F/F,/ E/E,/E/E,/ E/E,/E/E,/ E/E,/E/E,/ | D/D,/D/D,/ D/D,/D/D,/ D/D,/D/D,/ A,G, | %13
 F,G, E,D,/G,/!f! CA,G,A,- | A,G, F,2 A,2 G,G, | CG,=B, C2 D E2 | D2 =B,2 cAcd | egcG cdeg | %18
 =BGBc df!mp! C/C,/C/C,/ | C/C,/C/C,/ C/C,/C/C,/!f! =BGBc | %20
 df!mp! A/A,/A/A,/ A/A,/A/A,/ A/A,/A/A,/ |!f! GEG=B ce!mp! _G,/C,/G,/C,/ | %22
 _G,/C,/G,/C,/ G,/C,/G,/C,/!f! d=Bd_g |!f! g=agG, [G,F][G,D][G,=B,][G,D] | %24
 [G,=B,]G,[F,G,]G, G,G, C/B,/C/E/ | C/E/F/E/ F/G/F/G/ z/ z/ [Ee] [Dd][Cc] | [A,A][G,G][C,C] z z4 | %27
 C/C,/C/C,/ C/C,/C/C,/ C/C,/C/C,/ [C,C] z | z4 C/C,/C/C,/ =B,/=B,,/B,/B,,/ | %29
 B,/B,,/B,/B,,/ [=A,,=A,] z z4 | =A,/=A,,/A,/A,,/ A,/A,,/A,/A,,/ A,/A,,/A,/A,,/ [A,,A,] z | %31
 z4 =A/=A,/A/A,/ _A/_A,/A/A,/ | G/G,/G/G,/ [_G,_G] z z4 | z8 | z8 | z8 | z8 | z8 | z8 | z8 | z8 | %41
 z8 | z8 | z8 | z8 | z8 | z8 | z8 | z8 | z8 | z8 | z8 | z8 | z8 | z8 | z8 | z8 | z8 | z8 | z8 | %60
 z8 | z8 | z8 | z8 | z8 | z8 | z8 | z8 | z8 | z8 | z8 | z8 | z8 | z8 | z8 | z8 | z8 | z8 | z8 | %79
 z8 | z8 | z8 | z8 | z8 | z8 | z8 | z8 | z8 | z8 | z8 | z8 | z8 | z8 | z8 | z8 | z8 | z8 | z8 | %98
 z8 | z8 |] %100
V:4
!f! !>!C,2 z2 z4 | z!p! C,!mp!C,!mf!C,!f! !>!C,4 | z8 | CA,G,A, G,F,G,F, | E,F,E,D, C,2 C,2 | %5
 C,2 C,2 C,2 C,2 | z8 | z4 z z z2 | z4 D,E,D,G, | z2 z2 z4 | D,E,D,G, z4 | z8 | z8 | z8 | z8 | z8 | %16
 z8 | z8 | z8 | z8 | z8 | z8 | z8 | z8 | z z z D, =B,, z z2 | z8 | z8 | z z z2 z4 | z8 | z8 | z8 | %31
 z8 | z8 | z8 | z8 | z8 | z8 | z8 | z8 | z8 | z8 | z8 | z8 | z8 | z8 | z8 | z8 | z8 | z8 | z8 | %50
 z8 | z8 | z8 | z8 | z8 | z8 | z8 | z8 | z8 | z8 | z8 | z8 | z8 | z8 | z8 | z8 | z8 | z8 | z8 | %69
 z8 | z8 | z8 | z8 | z8 | z8 | z8 | z8 | z8 | z8 | z8 | z8 | z8 | z8 | z8 | z8 | z8 | z8 | z8 | %88
 z8 | z8 | z8 | z8 | z8 | z8 | z8 | z8 | z8 | z8 | z8 | z8 |] %100

